X: 40618
T: Tonight My Sleep Will Be Lonely
R: barndance
M: 4/4
K: Gmajor
DE|G3 A B2 d2|e E3 E3 F|G3 F G2 A2|B6 B2|A3 G G2 g2|
f3 e d2 e2|d3 B d2 f2|e6 e2|d3 e g2 a2|g d3 d3 e|g2 B2 A3 G|
E6 GF|G6 G2|e6 dB|d3 e g3 e|d2 B2 A3 G|G6 z2|

